X:1
T:Rimsky-Korsakov Harmonic Exercises 30
T:Rimsky-Korsakov Harmonic Exercises 30
T:"Practical Manual of Harmony" (1885)
T:Realizations by S. Shchetnikov
%%score { ( 1 3 ) | ( 2 4 ) }
L:1/8
Q:1/4=90
M:3/4
K:G
V:1 treble nm="Piano" snm="Pno."
V:3 treble 
V:2 bass 
V:4 bass 
V:1
"^Exercise 30.1 (add alto and tenor)""^Harmonisation of a melody containing free melodic figuration" GB dc ^GA | %1
 ^AB =fe Bc | d^f ag AB | dc BA GF | GB dc ^GA | ^AB =fe Bc | df ag AB | dc BA !breath!G2 |] %8
"""^Realization 30.1 (""_G:" (GB"" dc"""^passing tones" ^GA | %9
"""_G:""_C:""_{""^,""^appoggiaturas" ^AB =fe"""_C:""_G:""_{" B"^)"c |"" d^f"" ag"" AB | %11
"" dc"" BA"" GF |"""_G:" GB"" dc"" ^GA |"""_G:""_a:""_{" ^AB =fe"""_a:""_G:""_{" Bc | %14
"" d^f"" ag""[Q:1/4=90] A[Q:1/4=85]B | %15
""[Q:1/4=80] d[Q:1/4=75]c""[Q:1/4=70] B""[Q:1/4=65]A""[Q:1/4=60] G2) |] %16
V:2
 G,2 E,2 F,2 | G,2 C,4 | C,2 B,,2 C,B,, | A,,2 D,2 A,,2 | G,,2 E,2 D,2 | G,2 ^G,2 =A,2 | %6
 C,2 B,,2 C,B,, | A,,2 D,2 G,,2 |] (B,2 G,2 D2 | D2 C2 E2 | F2 D2 E2- | E2 D3 C | B,2 G,2 D2 | %13
 D2 B,2 A,2 | A,2 D2 E2- | E2 DC B,2) |] %16
V:3
 x6 | x6 | x6 | x6 | x6 | x6 | x6 | x6 |] (G2 G2 F2 |"" D2"" G2"" G2 | A2 B2 G2- | G2 F2 D2 | %12
 G2 G2 F2 |"" G2"" B2"" E2 | A2 B2 G2- | G2 F2 D2) |] %16
V:4
 x6 | x6 | x6 | x6 | x6 | x6 | x6 | x6 |] (G,2 E,2 F,2 | G,2 C,4 | C,2 B,,2 C,B,, | A,,2 D,2 A,,2 | %12
 G,,2 E,2 D,2 | G,2 ^G,2 =A,2 | C,2 B,,2 C,B,, | A,,2 D,2 G,,2) |] %16

